images/download.svg

<?xml version="1.0" encoding="UTF-8"?>
<svg width="16px" height="20px" viewBox="0 0 16 20" version="1.1" xmlns="http://www.w3.org/2000/svg" xmlns:xlink="http://www.w3.org/1999/xlink">
    <!-- Generator: Sketch 55.2 (78181) - https://sketchapp.com -->
    <title>Icon / Download</title>
    <desc>Created with Sketch.</desc>
    <g id="Page-1" stroke="none" stroke-width="1" fill="none" fill-rule="evenodd">
        <g id="download" fill="#212121">
            <g id="Icon-/-Download">
                <path d="M1.6,17.6573287 L1.6,16 L7.8697068,16 L14.4,16 L14.4,17.6573287 L14.4,19.2 L7.8697068,19.2 L1.6,19.2 L1.6,17.6573287 Z M0,5.3366167 L1.08944125,4.24769075 L2.1788819,3.2 L4.26338246,5.24318678 L6.4,7.2 L6.4,3.66380408 L6.4,0 L7.89055384,0 L9.6,0 L9.6,3.64295704 L9.6,7.2 L11.491896,5.22732192 C12.6241653,4.09509632 13.5885146,3.2 13.6,3.2 C13.611486,3.2 14.0801068,3.65657102 14.6762749,4.25282185 L15.7602169,5.33691394 L11.8305968,9.26645544 C9.66930592,11.4277032 7.8915868,13.1960436 7.8801096,13.1960436 C7.86863248,13.1960436 6.09091218,11.4277091 3.92962125,9.26635376 L0,5.3366167 Z" id="Shape"></path>
            </g>
        </g>
    </g>
</svg>

<svg width="16" height="20" xmlns="http://www.w3.org/2000/svg"><path d="M1.6 17.657V16h12.8v3.2H1.6v-1.543zM0 5.337l1.09-1.09L2.178 3.2l2.084 2.043L6.4 7.2V0h3.2v7.2l1.892-1.973A60.947 60.947 0 0113.6 3.2c.011 0 .48.457 1.076 1.053l1.084 1.084-3.93 3.93a532.294 532.294 0 01-3.95 3.929c-.011 0-1.79-1.768-3.95-3.93L0 5.336z" fill="#212121" fill-rule="evenodd"/></svg>
